_includes/icons/ios-gps.svg

<svg fill="#666" height="50" viewBox="0 0 50 50" width="50" xmlns="http://www.w3.org/2000/svg"><path d="m24.84375 0c-.335937.0585938-.617187.28125-.75.59375l-21.90625 48c-.164062.347656-.117187.757813.121094 1.054688.238281.300781.628906.4375 1.003906.351562.054688-.015625.105469-.039062.15625-.0625l21.53125-8.28125 21.53125 8.28125c.058594.027344.125.046875.1875.0625.132813.027344.273438.027344.40625 0 .101563-.027344.195313-.070312.28125-.125.445313-.257812.621094-.8125.40625-1.28125l-21.90625-48c-.078125-.179687-.210937-.332031-.375-.4375-.203125-.1328125-.445312-.1875-.6875-.15625zm-.84375 5.59375v34.3125l-19 7.28125zm2 0 1.3125 2.84375 1.625 3.5625c-.523437.035156-.9375.46875-.9375 1 0 .550781.449219 1 1 1 .277344 0 .539063-.101562.71875-.28125l4.78125 10.4375c-.292969.175781-.5.480469-.5.84375 0 .550781.449219 1 1 1 .101563 0 .1875-.035156.28125-.0625l3.34375 7.28125c-.171875-.136719-.386719-.21875-.625-.21875-.550781 0-1 .449219-1 1s.449219 1 1 1c.542969 0 .984375-.429687 1-.96875l1.125 2.5c-.078125.140625-.125.296875-.125.46875 0 .472656.34375.832031.78125.9375l3.21875 7.0625c-.550781 0-1 .449219-1 1 0 .175781.074219.324219.15625.46875l-7.40625-2.84375c.144531-.171875.25-.382812.25-.625 0-.550781-.449219-1-1-1-.542969 0-.984375.429688-1 .96875l-7.0625-2.71875c.023438-.085937.0625-.15625.0625-.25 0-.550781-.449219-1-1-1v-4c.550781 0 1-.449219 1-1s-.449219-1-1-1v-4c.550781 0 1-.449219 1-1s-.449219-1-1-1v-4c.550781 0 1-.449219 1-1s-.449219-1-1-1v-4c.550781 0 1-.449219 1-1s-.449219-1-1-1v-4c.550781 0 1-.449219 1-1s-.449219-1-1-1zm3 12.40625c-.550781 0-1 .449219-1 1s.449219 1 1 1 1-.449219 1-1-.449219-1-1-1zm3 3c-.550781 0-1 .449219-1 1s.449219 1 1 1 1-.449219 1-1-.449219-1-1-1zm-3 3c-.550781 0-1 .449219-1 1s.449219 1 1 1 1-.449219 1-1-.449219-1-1-1zm3 3c-.550781 0-1 .449219-1 1s.449219 1 1 1 1-.449219 1-1-.449219-1-1-1zm-3 3c-.550781 0-1 .449219-1 1s.449219 1 1 1 1-.449219 1-1-.449219-1-1-1zm6 0c-.550781 0-1 .449219-1 1s.449219 1 1 1 1-.449219 1-1-.449219-1-1-1zm-3 3c-.550781 0-1 .449219-1 1s.449219 1 1 1 1-.449219 1-1-.449219-1-1-1zm-3 3c-.550781 0-1 .449219-1 1s.449219 1 1 1 1-.449219 1-1-.449219-1-1-1zm6 0c-.550781 0-1 .449219-1 1s.449219 1 1 1 1-.449219 1-1-.449219-1-1-1zm-3 3c-.550781 0-1 .449219-1 1s.449219 1 1 1 1-.449219 1-1-.449219-1-1-1zm6 0c-.550781 0-1 .449219-1 1s.449219 1 1 1 1-.449219 1-1-.449219-1-1-1zm3 3c-.550781 0-1 .449219-1 1s.449219 1 1 1 1-.449219 1-1-.449219-1-1-1zm3.75 4.65625.25.53125-.6875-.25c.167969-.058594.324219-.152344.4375-.28125z"/></svg>

<svg xmlns="http://www.w3.org/2000/svg" viewBox="0 0 50 50" width="50" height="50" fill="#666"><path d="M 24.84375 0 C 24.507813 0.0585938 24.226563 0.28125 24.09375 0.59375 L 2.1875 48.59375 C 2.023438 48.941406 2.070313 49.351563 2.308594 49.648438 C 2.546875 49.949219 2.9375 50.085938 3.3125 50 C 3.367188 49.984375 3.417969 49.960938 3.46875 49.9375 L 25 41.65625 L 46.53125 49.9375 C 46.589844 49.964844 46.65625 49.984375 46.71875 50 C 46.851563 50.027344 46.992188 50.027344 47.125 50 C 47.226563 49.972656 47.320313 49.929688 47.40625 49.875 C 47.851563 49.617188 48.027344 49.0625 47.8125 48.59375 L 25.90625 0.59375 C 25.828125 0.414063 25.695313 0.261719 25.53125 0.15625 C 25.328125 0.0234375 25.085938 -0.03125 24.84375 0 Z M 24 5.59375 L 24 39.90625 L 5 47.1875 Z M 26 5.59375 L 27.3125 8.4375 L 28.9375 12 C 28.414063 12.035156 28 12.46875 28 13 C 28 13.550781 28.449219 14 29 14 C 29.277344 14 29.539063 13.898438 29.71875 13.71875 L 34.5 24.15625 C 34.207031 24.332031 34 24.636719 34 25 C 34 25.550781 34.449219 26 35 26 C 35.101563 26 35.1875 25.964844 35.28125 25.9375 L 38.625 33.21875 C 38.453125 33.082031 38.238281 33 38 33 C 37.449219 33 37 33.449219 37 34 C 37 34.550781 37.449219 35 38 35 C 38.542969 35 38.984375 34.570313 39 34.03125 L 40.125 36.53125 C 40.046875 36.671875 40 36.828125 40 37 C 40 37.472656 40.34375 37.832031 40.78125 37.9375 L 44 45 C 43.449219 45 43 45.449219 43 46 C 43 46.175781 43.074219 46.324219 43.15625 46.46875 L 35.75 43.625 C 35.894531 43.453125 36 43.242188 36 43 C 36 42.449219 35.550781 42 35 42 C 34.457031 42 34.015625 42.429688 34 42.96875 L 26.9375 40.25 C 26.960938 40.164063 27 40.09375 27 40 C 27 39.449219 26.550781 39 26 39 L 26 35 C 26.550781 35 27 34.550781 27 34 C 27 33.449219 26.550781 33 26 33 L 26 29 C 26.550781 29 27 28.550781 27 28 C 27 27.449219 26.550781 27 26 27 L 26 23 C 26.550781 23 27 22.550781 27 22 C 27 21.449219 26.550781 21 26 21 L 26 17 C 26.550781 17 27 16.550781 27 16 C 27 15.449219 26.550781 15 26 15 L 26 11 C 26.550781 11 27 10.550781 27 10 C 27 9.449219 26.550781 9 26 9 Z M 29 18 C 28.449219 18 28 18.449219 28 19 C 28 19.550781 28.449219 20 29 20 C 29.550781 20 30 19.550781 30 19 C 30 18.449219 29.550781 18 29 18 Z M 32 21 C 31.449219 21 31 21.449219 31 22 C 31 22.550781 31.449219 23 32 23 C 32.550781 23 33 22.550781 33 22 C 33 21.449219 32.550781 21 32 21 Z M 29 24 C 28.449219 24 28 24.449219 28 25 C 28 25.550781 28.449219 26 29 26 C 29.550781 26 30 25.550781 30 25 C 30 24.449219 29.550781 24 29 24 Z M 32 27 C 31.449219 27 31 27.449219 31 28 C 31 28.550781 31.449219 29 32 29 C 32.550781 29 33 28.550781 33 28 C 33 27.449219 32.550781 27 32 27 Z M 29 30 C 28.449219 30 28 30.449219 28 31 C 28 31.550781 28.449219 32 29 32 C 29.550781 32 30 31.550781 30 31 C 30 30.449219 29.550781 30 29 30 Z M 35 30 C 34.449219 30 34 30.449219 34 31 C 34 31.550781 34.449219 32 35 32 C 35.550781 32 36 31.550781 36 31 C 36 30.449219 35.550781 30 35 30 Z M 32 33 C 31.449219 33 31 33.449219 31 34 C 31 34.550781 31.449219 35 32 35 C 32.550781 35 33 34.550781 33 34 C 33 33.449219 32.550781 33 32 33 Z M 29 36 C 28.449219 36 28 36.449219 28 37 C 28 37.550781 28.449219 38 29 38 C 29.550781 38 30 37.550781 30 37 C 30 36.449219 29.550781 36 29 36 Z M 35 36 C 34.449219 36 34 36.449219 34 37 C 34 37.550781 34.449219 38 35 38 C 35.550781 38 36 37.550781 36 37 C 36 36.449219 35.550781 36 35 36 Z M 32 39 C 31.449219 39 31 39.449219 31 40 C 31 40.550781 31.449219 41 32 41 C 32.550781 41 33 40.550781 33 40 C 33 39.449219 32.550781 39 32 39 Z M 38 39 C 37.449219 39 37 39.449219 37 40 C 37 40.550781 37.449219 41 38 41 C 38.550781 41 39 40.550781 39 40 C 39 39.449219 38.550781 39 38 39 Z M 41 42 C 40.449219 42 40 42.449219 40 43 C 40 43.550781 40.449219 44 41 44 C 41.550781 44 42 43.550781 42 43 C 42 42.449219 41.550781 42 41 42 Z M 44.75 46.65625 L 45 47.1875 L 44.3125 46.9375 C 44.480469 46.878906 44.636719 46.785156 44.75 46.65625 Z"/></svg>
